packages/icons/raw/imported/SportMotor.svg

<svg width="32" height="32" viewBox="0 0 32 32" fill="none" xmlns="http://www.w3.org/2000/svg">
<path d="M16.0077 11.1735V12.047M12.9535 12.0079L13.3815 12.7626M10.7186 14.2845L11.4595 14.7204M9.89942 17.3955H10.7569M10.7186 20.5049L11.4595 20.0689M21.2968 20.5049L20.5543 20.0689M22.1144 17.3955H21.2569M21.2968 14.2845L20.5543 14.7204M19.0603 12.0079L18.6323 12.7626M18.3853 14.972L16.8483 16.5376M20.0389 25.3002L18.0785 21.9408H13.9353L11.9749 25.3002M18.7903 23.1611H22.2126C23.3099 21.9355 24.0339 20.4114 24.2963 18.7743C24.5588 17.1372 24.3484 15.4577 23.6908 13.9402C23.0332 12.4227 21.9567 11.1326 20.5923 10.2269C19.228 9.32125 17.6346 8.83907 16.0061 8.83907C14.3777 8.83907 12.7843 9.32125 11.4199 10.2269C10.0556 11.1326 8.97911 12.4227 8.32149 13.9402C7.66388 15.4577 7.45349 17.1372 7.71594 18.7743C7.97838 20.4114 8.70234 21.9355 9.79971 23.1611H13.2235M23.0731 25.3002C24.6385 23.8468 25.7359 21.9452 26.2209 19.845C26.706 17.7448 26.5562 15.5443 25.7911 13.5324C25.0261 11.5205 23.6815 9.79139 21.9341 8.57205C20.1867 7.35271 18.1181 6.7002 16 6.7002C13.8819 6.7002 11.8133 7.35271 10.0659 8.57205C8.31847 9.79139 6.97394 11.5205 6.20888 13.5324C5.44381 15.5443 5.29398 17.7448 5.77906 19.845C6.26414 21.9452 7.36145 23.8468 8.92688 25.3002H23.0731ZM16.8492 16.5379C17.314 17.0114 17.314 17.7791 16.8492 18.2526C16.3843 18.7261 15.6306 18.7261 15.1658 18.2526C14.7009 17.7791 14.7009 17.0114 15.1658 16.5379C15.6306 16.0643 16.3843 16.0643 16.8492 16.5379Z" stroke="black" stroke-linecap="round" stroke-linejoin="round"/>
</svg>

<svg width="32" height="32" fill="none" xmlns="http://www.w3.org/2000/svg"><path d="M16.008 11.174v.873m-3.054-.04.428.756m-2.663 1.521.74.436M9.9 17.395h.858m-.038 3.11.74-.436m9.838.436-.743-.436m1.56-2.674h-.857m.04-3.11-.743.435m-1.494-2.712-.428.755m-.247 2.209-1.537 1.566m3.19 8.762-1.96-3.36h-4.143l-1.96 3.36m6.815-2.139h3.423a8.622 8.622 0 0 0 2.083-4.387 8.701 8.701 0 0 0-.605-4.834 8.517 8.517 0 0 0-3.099-3.713 8.29 8.29 0 0 0-4.586-1.388 8.29 8.29 0 0 0-4.586 1.388A8.517 8.517 0 0 0 8.32 13.94a8.701 8.701 0 0 0-.605 4.834A8.622 8.622 0 0 0 9.8 23.161h3.423m9.85 2.14a10.738 10.738 0 0 0 3.148-5.456c.485-2.1.335-4.3-.43-6.313a10.665 10.665 0 0 0-3.857-4.96A10.366 10.366 0 0 0 16 6.7c-2.118 0-4.187.653-5.934 1.872a10.665 10.665 0 0 0-3.857 4.96 10.883 10.883 0 0 0-.43 6.313A10.738 10.738 0 0 0 8.927 25.3h14.146Zm-6.224-8.763a1.229 1.229 0 0 1 0 1.715 1.175 1.175 0 0 1-1.683 0 1.228 1.228 0 0 1 0-1.715 1.175 1.175 0 0 1 1.683 0Z" stroke="#000" stroke-linecap="round" stroke-linejoin="round"/></svg>
